X: 1
T: Norsk schottis
O: efter Norrt\"alje Elitkapell
R: shottish
S: handwritten MS by D.R.Clark 1984, labelled "DRC 7-3-84"
Z: ABC by John Chambers 2007
M: 2/4
L: 1/16
K: G
|: "G"DGBd edBG  |     D2B2 B>^AB2 |      DGBd   edBG | "C"F2c2 c>Bc2 |
| "D7"DEFG ABc^c |     d2f2   f3e  |1     e2^d2  e3=d | "G"d2^c2 d2B2 :|2 "D7"e2d2 E2F2 | "G"G8 ||
|: "C"e2f2 g3e   | "G"~d^cde ~dcd2 | "D7"~=cBcd ~cBc2 | "G"d^cd2 edcd |
|  "C"e2f2 g3e   | "G"~d^cde ~dcd2 | "D7" DEFG   A2B2 | "G"G8 :|
